icons/linear-ele-drink-coffee.svg

<svg xmlns="http://www.w3.org/2000/svg" width="32px" height="32px" viewBox="0 0 32 32" version="1.1">
    <title>linear-ele-drink-coffee</title>
    <g id="linear-ele-drink-coffee" stroke-width="1" fill-rule="evenodd">
        <path d="M25,2 C25.58251,2 26.041731,2.49590225 25.9970545,3.0766965 L25.7715074,6 L26,6 C26.4588676,6 26.8588507,6.31229737 26.9701425,6.75746437 L27.9701425,10.7574644 C28.1279292,11.3886111 27.6505712,12 27,12 L25.3105074,12 L23.9970545,29.0766965 C23.9569778,29.5976937 23.5225363,30 23,30 L9,30 C8.47746369,30 8.04302222,29.5976937 8.00294551,29.0766965 L6.6885074,12 L5,12 C4.34942885,12 3.87207082,11.3886111 4.0298575,10.7574644 L5.0298575,6.75746437 C5.14114925,6.31229737 5.54113236,6 6,6 L6.2275074,6 L6.00294551,3.0766965 C5.95826903,2.49590225 6.41748996,2 7,2 L25,2 Z M23.3045074,12 L8.6945074,12 L9.926,28 L22.073,28 L23.3045074,12 Z M25.218,8 L6.781,8 L6.281,10 L25.718,10 L25.218,8 Z M23.919,4 L8.08,4 L8.2335074,6 L23.7655074,6 L23.919,4 Z" id="&#24418;&#29366;" fill-rule="nonzero" />
    </g>
</svg>

<svg xmlns="http://www.w3.org/2000/svg" viewBox="0 0 32 32"><path fill="currentColor" d="M25 2a1 1 0 0 1 .997 1.077L25.772 6H26a1 1 0 0 1 .97.757l1 4A1 1 0 0 1 27 12h-1.69l-1.313 17.077A1 1 0 0 1 23 30H9a1 1 0 0 1-.997-.923L6.689 12H5a1 1 0 0 1-.97-1.243l1-4A1 1 0 0 1 6 6h.228l-.225-2.923A1 1 0 0 1 7 2zm-1.695 10H8.695l1.231 16h12.147zm1.913-4H6.781l-.5 2h19.437zm-1.299-4H8.08l.154 2h15.532z"/></svg>
